public/icons/html5.svg

<svg width="128" height="128" viewBox="0 0 128 128" fill="none" xmlns="http://www.w3.org/2000/svg">
<path d="M19.037 113.876L9.03198 1.66101H118.968L108.952 113.859L63.933 126.339L19.037 113.876Z" fill="#E44D26"/>
<path d="M64 116.8L100.378 106.714L108.937 10.8361H64V116.8Z" fill="#F16529"/>
<path d="M64 52.455H45.788L44.53 38.361H64V24.599H29.489L29.819 28.291L33.201 66.218H64V52.455ZM64 88.198L63.939 88.215L48.612 84.075L47.633 73.1H33.816L35.744 94.709L63.937 102.535L64 102.518V88.198Z" fill="#EBEBEB"/>
<path d="M63.9519 52.455V66.218H80.8989L79.3019 84.067L63.9519 88.21V102.529L92.1669 94.709L92.3739 92.384L95.6079 56.151L95.9429 52.455H92.2349H63.9519ZM63.9519 24.599V38.361H97.1959L97.4719 35.269L98.0999 28.291L98.4289 24.599H63.9519Z" fill="white"/>
</svg>

<svg xmlns="http://www.w3.org/2000/svg" fill="none" viewBox="0 0 128 128"><path fill="#E44D26" d="M19.037 113.876 9.032 1.661h109.936l-10.016 112.198-45.019 12.48-44.896-12.463Z"/><path fill="#F16529" d="m64 116.8 36.378-10.086 8.559-95.878H64V116.8Z"/><path fill="#EBEBEB" d="M64 52.455H45.788L44.53 38.361H64V24.599H29.489l.33 3.692 3.382 37.927H64V52.455Zm0 35.743-.061.017-15.327-4.14-.979-10.975H33.816l1.928 21.609 28.193 7.826.063-.017v-14.32Z"/><path fill="#fff" d="M63.952 52.455v13.763h16.947l-1.597 17.849-15.35 4.143v14.319l28.215-7.82.207-2.325 3.234-36.233.335-3.696H63.952Zm0-27.856v13.762h33.244l.276-3.092.628-6.978.329-3.692H63.952Z"/></svg>
